icons/svg/seamark_big/topmark_vertical_black_rhombus_big.svg

<?xml version="1.0" encoding="UTF-8" standalone="no"?>
<svg
   xmlns:dc="http://purl.org/dc/elements/1.1/"
   xmlns:cc="http://creativecommons.org/ns#"
   xmlns:rdf="http://www.w3.org/1999/02/22-rdf-syntax-ns#"
   xmlns:svg="http://www.w3.org/2000/svg"
   xmlns="http://www.w3.org/2000/svg"
   xmlns:sodipodi="http://sodipodi.sourceforge.net/DTD/sodipodi-0.dtd"
   xmlns:inkscape="http://www.inkscape.org/namespaces/inkscape"
   width="1060"
   height="1060"
   id="svg2"
   version="1.1"
   inkscape:version="0.48.4 r9939"
   sodipodi:docname="topmark_vertical_black_rhombus_big.svg">
  <defs
     id="defs13">
    <inkscape:path-effect
       effect="gears"
       id="path-effect3774"
       is_visible="true"
       teeth="6"
       phi="-1.2" />
    <inkscape:path-effect
       effect="bend_path"
       id="path-effect3772"
       is_visible="false"
       bendpath="m 95.790098,316.51174 c 144.429032,-206.42506 223.313032,-11.7428 339.548092,0"
       prop_scale="1.19"
       scale_y_rel="false"
       vertical="false"
       bendpath-nodetypes="cc" />
  </defs>
  <sodipodi:namedview
     pagecolor="#ffffff"
     bordercolor="#666666"
     borderopacity="1"
     objecttolerance="10"
     gridtolerance="10"
     guidetolerance="10"
     inkscape:pageopacity="0"
     inkscape:pageshadow="2"
     inkscape:window-width="1920"
     inkscape:window-height="1004"
     id="namedview11"
     showgrid="false"
     inkscape:zoom="0.40689655"
     inkscape:cx="718.68755"
     inkscape:cy="849.16606"
     inkscape:window-x="1680"
     inkscape:window-y="0"
     inkscape:window-maximized="1"
     inkscape:current-layer="svg2" />
  <metadata
     id="metadata2975">image/svg+xmlen<rdf:RDF>
  <cc:Work
     rdf:about="">
    <dc:format>image/svg+xml</dc:format>
    <dc:type
       rdf:resource="http://purl.org/dc/dcmitype/StillImage" />
    <dc:title />
  </cc:Work>
</rdf:RDF>
</metadata>
  <path
     style="font-size:medium;font-style:normal;font-variant:normal;font-weight:normal;font-stretch:normal;text-indent:0;text-align:start;text-decoration:none;line-height:normal;letter-spacing:normal;word-spacing:normal;text-transform:none;direction:ltr;block-progression:tb;writing-mode:lr-tb;text-anchor:start;baseline-shift:baseline;opacity:0.42608696;color:#000000;fill:#acd8f3;fill-opacity:1;fill-rule:nonzero;stroke:#a35151;stroke-width:0;stroke-linecap:round;stroke-linejoin:miter;stroke-miterlimit:4;stroke-opacity:1;stroke-dashoffset:0;marker:none;visibility:visible;display:inline;overflow:visible;enable-background:accumulate;font-family:Sans;-inkscape-font-specification:Sans"
     d="m 529.10148,55.142199 c -5.79633,0.119506 -11.51173,2.570598 -15.59375,6.687498 l -76.65625,77.500043 c -4.16175,4.20657 -6.56736,10.09943 -6.53844,16.01674 0.0289,5.91731 2.49202,11.78636 6.69469,15.95204 l 57.6875,57.0625 0,285 c -0.002,5.92384 2.43533,11.81209 6.62412,16.00088 4.18879,4.18879 10.07704,6.62643 16.00088,6.62412 l 25,0 c 5.92384,0.002 11.81209,-2.43533 16.00088,-6.62412 4.18879,-4.18879 6.62643,-10.07704 6.62412,-16.00088 l 0,-284.1875 58.21875,-58.875 c 4.15768,-4.21064 6.55757,-10.10587 6.52286,-16.02319 -0.0347,-5.91732 -2.50357,-11.78401 -6.71036,-15.94559 l -77.5,-76.656293 c -4.2919,-4.244816 -10.33985,-6.657068 -16.375,-6.531248 z"
     id="path3068"
     inkscape:connector-curvature="0"
     sodipodi:nodetypes="cccscccsccscccsccc" />
  <path
     style="color:#000000;fill:none;stroke:#000000;stroke-width:25;stroke-linecap:butt;stroke-linejoin:miter;stroke-miterlimit:4;stroke-opacity:1;stroke-dasharray:none;stroke-dashoffset:0;marker:none;visibility:visible;display:inline;overflow:visible;enable-background:accumulate"
     d="m 529.99211,513.39228 0,-383.73936"
     id="path3065"
     inkscape:connector-curvature="0"
     sodipodi:nodetypes="cc" />
  <a
     id="a3773"
     transform="matrix(0.97379711,-0.22741855,0.22741855,0.97379711,143.21041,122.36421)"
     style="color:#000000;fill:#000000;fill-opacity:1;fill-rule:nonzero;stroke:#a35151;stroke-width:0;stroke-linecap:round;stroke-linejoin:miter;stroke-miterlimit:4;stroke-opacity:1;stroke-dasharray:none;stroke-dashoffset:0;marker:none;visibility:visible;display:inline;overflow:visible;enable-background:accumulate">
    <rect
       transform="matrix(0.53239528,0.84649587,-0.84649587,0.53239528,0,0)"
       y="-303.41708"
       x="243.31619"
       height="109.00342"
       width="109.00342"
       id="rect2986"
       style="color:#000000;fill:#000000;fill-opacity:1;fill-rule:nonzero;stroke:#a35151;stroke-width:0;stroke-linecap:round;stroke-linejoin:miter;stroke-miterlimit:4;stroke-opacity:1;stroke-dasharray:none;stroke-dashoffset:0;marker:none;visibility:visible;display:inline;overflow:visible;enable-background:accumulate" />
  </a>
</svg>

<svg width="1060" height="1060" viewBox="0 0 1060 1060" fill="none" xmlns="http://www.w3.org/2000/svg">
<path opacity="0.426087" d="M529.101 55.1424C523.305 55.2619 517.59 57.713 513.508 61.8299L436.851 139.33C432.69 143.536 430.284 149.429 430.313 155.347C430.342 161.264 432.805 167.133 437.008 171.299L494.695 228.361V513.361C494.693 519.285 497.131 525.173 501.319 529.362C505.508 533.551 511.396 535.989 517.32 535.986H542.32C548.244 535.988 554.132 533.551 558.321 529.362C562.51 525.173 564.948 519.285 564.945 513.361V229.174L623.164 170.299C627.322 166.088 629.721 160.193 629.687 154.276C629.652 148.358 627.183 142.492 622.976 138.33L545.476 61.6736C541.185 57.4288 535.137 55.0166 529.101 55.1424V55.1424Z" fill="#ACD8F3"/>
<path d="M529.992 513.392V129.653" stroke="black" stroke-width="25"/>
</svg>
